X:1
T:Second Piano Concerto
T:Third Movement Excerpts
T:Sergei Rachmaninoff
T:Arranged by Percy Aldridge Grainger
%%score { ( 1 4 5 ) | ( 2 3 ) }
L:1/8
Q:1/4=132
M:4/4
K:Bb
V:1 treble nm="Piano"
V:4 treble 
V:5 treble 
V:2 bass 
V:3 bass 
V:1
"^Allegro moderato"!f! z2 [egae']2 [dgad']2 [egae']2 | [dfad']4 [Acea]2 [dfad']2 | %2
 [cegc']2 [degd']2 [cfgc']2 [dfgd']2 | [cegc']4"^S.P." [Begb]2 [cegc']2 | [Bb]2 [cc']2 [Aa]4- | %5
 [Aa]2 [Bb]2 [Gg]4 | [Gg]2[Q:1/4=124]"^ritard" [Ee]2 [Ff]4- | [Ff]2 [Gg]2 [Ee]2 [Ff]2 | %8
 [Dd]2!mf![Q:1/4=144]"^Più moderato" [F,F]2 [B,B]4- | [B,B]2!mf! [_A,_A]2 [F,F]2 [E,_CE]2 | F8- | %11
 F2[K:bass]!mf! [D,D]2 [E,E]2 [D,D]2 | [_G,_G]2 [F,F]2 [E,E]2 [D,D]2 | %13
 [F,F]2 [E,E]2 [D,D]2 [C,C]2 | [F,F]8- | [F,F]2!mp! [B,,B,]2!<(! [C,C]2 [^C,^C]2!<)! | %16
!mf! [D,D]8- | [D,D]2!mf! [B,,B,]2 [D,D]2 [E,E]2 | [F,F]2!>(! [E,E]2 [D,D-]4!>)! | %19
 D2[K:treble]!mp! [F,F]2 [B,B]2 [Cc]2 | %20
 [Dd]2[Q:1/4=96]!>(! !arpeggio!!fermata![E^FBe]4!>)![Q:1/4=144] [DFAd]2 | [Dd]4!f! [Cc]2 [B,GB]2 | %22
[Q:1/4=132]"^rit. e dim." [F,F]4 (6:4:6x/ x/ F,/-[F,=B,]/-[F,B,E]/-[F,-B,-EG-]/ [F,B,G]4 | %23
[Q:1/4=120] D2!mp! E4 F2 | [B,D]2!mf![Q:1/4=144]"^a tempo" [Ff]2 [Bb]4- | %25
 [Bb]2 [_A_a]2 [Ff]2 [Ee]2 | [FBf]8- | [FBf]2 [Dd]2 [Ee]2 [Dd]2 | [_G_g]2 [Ff]2 [Ee]2 [Dd]2 | %29
 [Ff]2 [Ee]2 [Dd]2 [Cc]2 | [FBf]8- | [FBf]2 [B,B]2 [Cc]2 [^C^c]2 | [Dd]8- | %33
 [Dd]2 [B,B]2 [Dd]2 [Ee]2 | [Ff]2 [Ee]2 [Dd]4- |!mf!!<(! [Dd]2 [Ff]2 [Bb]2!<)! [cc']2 | %36
 [d^fc'd']2 [efc'e']4 [dfc'd']2 | [dd']6 [cc']2 | [Bb]2 [Aa]2 [Gg]2 [Bb]2 | %39
!<(! [Ff]2 [Bb]2 [dd']2!<)! [ff']2 |!f! [^f^a=e'^f']2 [gae'g']4 [fae'f']2 | %41
 [_g_b_e'_g']2 [cgbc']2 [dgbd']2 [egbe']2 | [f=ae'f']2!f! [=gae'=g']4 [f_ae'f']2 | %43
 [fg=bd'f']2 [=Bfgb]2 [cfgc']2 [dfgd']2 | [dd']2 [ee']2 [ee']2 [dd']2 | %45
 [dd']2 [cc']2!f! [cc']2 [dd']2 |!ff! [dd']4 [cc']2 [Bb]2 | [Bb]2 [Dd]4 [Cc]2 | [Ff]4 [Ee]2 [Dd]2 | %49
 [Dd]2 [Ff]4 [Ee]2 |!mf!!<(! [Dd]4!<)!!f! [_Ac-d-_a-]4 |!f!!>(! [_Acda]4!>)! [G=Bdg]2 [G,G]2 | %52
 [_B,B]2 [Dd]2[Q:1/4=120]"^molto ritard" [Ee]2 [Ff]2 |!mf![Q:1/4=112]!>(! [EGe]6 [Ff]2!>)! | %54
[Q:1/4=96]"^Meno Mosso" z B/4-[Be]/4-[Beg]/4-[Begb]/4- [Begb] z (3_CB,C (3B,_A,B,(3A,G,A, | %55
 (3B,EG (3_cBc (3B_AB (3AGA | (3B_AB (3AGA (3BGB (3de^f | (3gBd (3e^fg!pp! Tb4 | %58
!p! b2 (3EDE (3DCD (3CB,C | (3DGB (3ede (3dcd (3cBc | (3dcd (3cBc (3dGB (3^cd^f | %61
 (3gB^c (3d^fg!pp! Tb4 |!p! b2 (3_GFG (3FEF (3EDE | (3FBd (3_gfg (3fef (3ede | %64
 (3fef (3ede[Q:1/4=88]"^ritard" (3fB^c (3d=ef |[Q:1/4=80] (3bd_e (3_g=ab!pp! Td'4 | %66
[Q:1/4=188]"^Allegro scherzaando" d'2 z[K:bass] [C,E,=A,] [D,F,=B,]3 [C,E,C] | %67
 [D,F,D]3 [E,G,E] [F,A,F]3 [^F,=D^F] |!mf! [G,DG]3[K:treble] [=A,CE=A] [=B,DF=B]3 [CEc] | %69
[Q:1/4=240] [DFd]3 [EGe] [F_Af]3 [^F=d^f] | %70
 [Gdg]2!8va(! .[g=b].[=ac'] .[_bd'].[c'e'].[d'f'].[e'_g'] | %71
 .[=b=g'].^c'.[bd'].[=c'e'] .[d'f'].[e'g'].[f'=a'].[g'=b'] || %72
[K:Ab][M:3/2][Q:1/4=200]"^Più mosso" [c'_a'c'']2!8va)!!<(! .[cac'].[cac'] .[cac'].[_da_d'].[=da=d']!<)!.[eae']!>(! .[_fg_f'].[ee'].[dd']!>)!.[_d_d'] | %73
!<(! .[cac']2!8va(! .[c'a'c''].[c'a'c''] .[c'a'c''].[_d'a'_d''].[=d'a'=d'']!<)!.[e'a'e'']!>(! .[_f'g'_f''].[e'e''].[d'd'']!>)!.[_d'_d''] | %74
 [c'a'c'']3 g [ac']=b[c'e']c'!mf! [_d'_f']=a[_bd']=b | %75
 [c'e']g[_ac']b [=b=d']!mf!!>(!g[ac']=a [_b_d']^f[gb]!>)!g | %76
 [ac']2!8va)!!<(! .[Afa].[Afa] .[Afa].[Bb].[=B=b]!<)!.[cc']!mf!!>(! [dd'][cc'][Bb][_B_b]!>)! | %77
 [Afa]2!8va(!!<(! .[af'a'].[af'a'] .[af'a'].[bb'].[=b=b'].[c'c'']!<)!!mf! [d'd'']!>(![c'c''][bb'][_b_b']!>)! | %78
 [af'a']3!8va)!!<(! =e [fa]g[ac']=a!<)!!mf! [bd']^f[gb]g | %79
 [_ac']=e[fa]!mf!!>(!^f [gb]=d[eg]_e [=fa]c[df]!>)!c || %80
[K:Eb][M:4/4][Q:1/4=210]"^Presto" [=Bg]2 .[A,CEA]2 .[G,=B,DG]2 .[A,CEA]2 | %81
 .[G,=B,DG]2!8va(! .[e'g'_b'e''].[e'g'b'e''] .[d'^f'=a'd'']2 .[e'g'b'e'']2 | %82
 .[d'^f'=a'd'']2!8va)! .[=F=Acf]2 .[=E^G=B=e]2 .[FAcf]2 | %83
 .[=E^G=B=e]2!8va(! .[c'=e'=g'c''].[c'e'g'c''] .[=b^d'^f'=b']2 .[c'e'g'c'']2 | %84
 .[=b^d'^f'=b']2!8va)! .[_EGB_e]2 .[=DF_Ad]2!8va(! .[_b=d'=f'_b']2 | %85
 .[=a^c'=e'=a']2!8va)! .[_DFA_d]2 .[=CFAc]2!8va(! .[_a=bf'_a']2 | %86
 .[gc'g']2!8va)! .[=B,G=B]2 .[CG_B]2 .[_gb_g']2 | z2 .[f_af']2 z2!ff! .[f=b=d'f']2 | %88
 .[=B,DG]2!mp! .[EG_Be]2 .[DGBd]2 .[_B,_DF]2 | .[G,^C=E]2!mp! .[_DFA_d]2 .[=CFA=c]2 .[A,_C_E]2 | %90
 .[F,A,D]2 .[A_c]2 .[G,B,D]2 .[GB]2 | z2 .[G=A]2 z2 .[F_A]2 | z2 A4 G2 | z2 _F4 E2 | z2 C4 C2- | %95
 C2 C2 c2 C2 | .[G,=B,G]2 z2 .[G,B,G]2 z2 | .[=G,=B,=G]2 z2 .[G,B,G]2 z2 | %98
 .[=B,G]2!p! .[EA]2 .[EG]2 .[EA]2 | .[EG]2 [A,F][B,G] [A,F]2 [G,E][A,F] | %100
 [G,E]2 .[CF]2 .[CE]2 .[CF]2 | .[CE]2[K:bass] [F,D][G,E] [F,D]2 [E,C][F,D] | %102
 [E,C]2 .[G,C]2 .[G,B,]2 .[G,C]2 | .[G,B,]2 [C,A,][D,B,] [C,A,]2 [=B,,G,][C,A,] | %104
 [=B,,G,]2 [E,G,][F,A,] [E,G,]2 [D,F,][E,G,] | [D,F,]2 [C,E,][D,F,] [C,E,]2 [=B,,D,][C,E,] | %106
 [=B,,D,] z[K:treble] .[CA]2 .[CG]2 .[CA]2 | .[CG]2 FG F2 c2- | c2 .[B,G]2 .[B,F]2 .[B,G]2 | %109
 .[B,F]2 EF E2 B2- | B2 .[B,F]2 .[B,E]2 .[B,F]2 | .[B,E]2 DE x2 B2- | B2 CD x2 A2- | A2 F2 =E2 F2 | %114
 =E2 [A,F]4 [G,F]2- | [G,F]2 _EFEc G=A | G^c ^FGFd G2 | z .G.F.G .E.D.E.F | .G.A.G.A .F.E.F.G | %119
 .A.B.A.B .G.B.A.B | .G2 .C.E .F.C.D.F | .G.B.A.B .G.F.G.A | .B.c.B.c .A.G.A.B | %123
 .c.e.f.g .e.f.g.a | .f.g.a.b .^f.g.=a.=b |!f! g2!8va(! (3g'=b'g'' f''2 (3f'a'f'' | %126
 e''2 (3e'g'e'' _d''2 (3_d'f'd'' | c''2 (3c'=e'c'' b'2 (3bc'b' | a'2 (3ac'a' g'2 (3gc'g' | %129
 f'2 (3f'a'f'' e''2 (3e'g'e'' | _d''2 (3_d'f'd'' _c''2 (3_c'e'c'' | b'2 (3b=d'b' a'2 (3aba' | %132
 _g'2 (3_gbg' f'2 (3fbf' | e'2 (3e'=g'e'' d''2 (3d'f'd'' | c''2 (3c'e'c'' b'2 (3bd'b' | %135
 =a'2 (3=ac'a' g'2!8va)! (3gbg' | f'2 (3fgf' e'2 (3ege' | [d^f=ad']2 [dd'][fa] z2 [cc'][eg] | %138
 z2 [Bb][d^f] z2 [=A=a][df] |!ff! z2 [Gg][Bd] z2 [^F^f][_Ad] | z2 [Ee][Gc] z2 [Dd][^F=A] | %141
 z!p! =B,C^C DEFD | GA=AB =BGAB | c^FG_A =A_BcA | de=ef ^fdef | gBc^c defd | b=abc' d'bc'd' | %147
!8va(! [ee']2 [ff']2 [gg']2 [=a=a'][=b=b'] | %148
[Q:1/4=188]"_ritard" [c'c'']2 [d'd'']2 [e'e'']2 [f'f'']2 || %149
[K:C]!f![Q:1/4=172]"^Meno mosso" [g'g'']6!8va)! [A,CFA]2 | z2 [FGBd]2 [GBdg]2 x2 | %151
 [GBdfg]2 [Acfa]2 [FGBfg]4 | %152
 !arpeggio![DFBd]2!8va(! [ac'f'a']2 [gbd'f'g']2!ff! [a'c''f''a'']2!8va)! | %153
[K:bass][Q:1/4=210]"^(Presto)""^quasi cadenza" x2 (3G,,C,G, (3D,G,,[I:staff +1]G,,[I:staff -1] x2 | %154
 x2 (3D,F,D (3G,D,[I:staff +1]D,[I:staff -1] x2 | %155
[K:treble] x2 (3G,CG (3DG,[I:staff +1]G,[I:staff -1] x2 | x2 (3DFd (3GDD x2 | %157
 x2 (3Gdg z2!8va(! (3[aa'][d'f'][aa'] | z2 (3[gg'][d'f'][gg']!8va)! z2 (3[Aa][df][Aa] | %159
 z2 (3[Gg][df][Gg] z2!8va(! (3[aa'][d'f'][aa'] | z2 (3[gg'][d'f'][gg']!8va)! z2 (3[Aa][df][Aa] | %161
 z2 (3[Gg][df][Gg] z2!8va(! (3[aa'][d'f'][aa']!8va)! | z2 (3[Gg][df][Gg] z2 (3[Aa][df][Aa] | %163
 z2 (3[Gg][df][Q:1/4=188]"^rit."[Gg] z2 (3[Aa][df][Aa] | %164
[Q:1/4=172] z2 (3[Gg][df][Gg] z2[Q:1/4=144]!8va(! (3[gg']bg' | %165
[I:staff +1]g'b'[Q:1/4=72][I:staff -1] [g'g'']2!8va)! !fermata!z2 | %166
[Q:1/4=120]"^Maestoso" z2 [Gg]2 [cc']4- | [cc']2 [_B_df_b]2 [Gg]2 [FGBdf]2 | [Gg-]8 | %169
 g2 [EGce]2 [FGcf]2 [EGce]2 | %170
 [_A_a]2"^l.h."[I:staff +1]{/C,G,_B,C[I:staff -1]EG_Bce} g2"^r.h." [Ff]2 [EBce]2 | %171
 [Gg]2"^l.h."[I:staff +1]{/C,F,_A,=B,[I:staff -1]DF_A=Bd} f2"^r.h." [Ee]2 [DFABd]2 | [Gg-]8 | %173
!fff! g2!>(! [EGc]2 [DGcd]2 [^DGc^d]2!>)! | e8- | e2 [CEAc]2 [Ee]2 [FAef]2 | %176
 [Gg]2 [FGBdf]2 [Ee-]4 | e2 [Gceg]2 [cc']2 [dgc'd']2 |!ff! [e^gd'e']2 [fgd'f']4 [egd'e']2 | %179
!ff! [eae']6 [dad']2 |!ff! [cc']2 [Bdb]2 [Ada]2 [cdc']2 | %181
!mf!!<(! [Gceg]2 [cegc']2 [egc'e']2 [gc'e'g']2!<)! |!fff! [_ac'_g'_a']2 [__bc'g'__b']4 [ac'g'a']2 | %183
!fff! [_ac'f'_a']2 [dac'd']2 [=e=e']2 [fac'd'f']2 | [gbf'g']2 [=abf'=a']4 [g_bf'g']2 | %185
!fff! [ga^c'e'g']2 [^cgac']2 [dgad']2 [egc'e']2 | [ead'e']2 [fad'f']2 [fad'f']2 [ead'e']2 | %187
 [e^gd'e']2 [degd']2 [degd']2 [egd'e']2 |!fff! [efac'e']4 [dfad']2 [cfac']2 | %189
 [ceac']2 [EAce]2 [Ee]2 [DAcd]2 | %190
[Q:1/4=160]"^Più vivo" [Gceg]2!ff! (3z [cea]A (3z [egb]B (3z [egc']c | %191
 (3z [gc'd']d (3z [gc'e']e (3z [c'f']f (3z [c'd'^f']^f | %192
!8va(! (3z [d'f'g']g (3z [ga_e']_e (3z [g_b=e']=e (3z [g=bf']f | %193
 (3z [c'g']g (3z [g'a']a (3z [c'^f'a']a (3z [=f'g'b']b | %194
 [c'e'c'']2!8va)![K:bass][Q:1/4=200]"^Risoluto" (3E,^F,G, (3A,G,A, (3B,A,B, | %195
 C2 (3^G,A,B, (3CB,C (3DCD | E2[K:treble] (3z [=GA^c]E (3z [Ad]F (3z [=cda]A | %197
 (3z [cdg]G (3z!8va(! [c'd'g']g (3z [bd'g']g!8va)! (3z [Bdg]G | c2 (3^GAB (3cBc (3dcd | %199
 e2 (3cd^d (3ede (3^fef | g2 (3z [^cga]A (3z [da]A (3z [a=c'd']d | %201
 (3z [cdg]G (3z!8va(! [c'd'g']g (3z [bd'g']g (3z [b'd''g'']g' | %202
 c'' z (3e''c''a' (6:4:6^f'e'c'a^fe!8va)! | z2 (3e'd'b (6:4:6^gedB^GE | %204
 z2 (3eB=G (6:4:6E[K:bass]B,G,E,B,,G,, | z2 (3z [A,CE]E, (3z [A,C]E, (3z [B,E]G, | %206
 [E,G,C]2[I:staff +1] (3[A,,,C,,E,,A,,][I:staff -1][E,A,]C,[I:staff +1] (3[G,,,C,,E,,G,,][I:staff -1][E,G,]C,[I:staff +1] (3[D,,E,,G,,D,][I:staff -1][G,D]E, | %207
[I:staff +1] (3[C,,E,,G,,C,][I:staff -1][G,C]E,[I:staff +1] (3[A,,C,E,A,][I:staff -1][K:treble][EA]C x2 x2 | %208
 z2[I:staff +1] (3[A,CEA][I:staff -1][ea]c[I:staff +1] (3[G,CEG][I:staff -1][eg]c[I:staff +1] (3[DEGd][I:staff -1][gd']e | %209
[I:staff +1] (3[CEGc][I:staff -1][gc']e[I:staff +1] (3[Acea]!8va(![I:staff -1][e'a']c'!8va)![I:staff +1] (3[GBfg]!8va(![I:staff -1][d'g']d'!8va)![I:staff +1] (3[G,B,DG]!8va(![I:staff -1][f'g'd'']d' | %210
!fff! [c'e'g'c'']2!8va)! z2 z4 | z8 |] %212
V:2
"^The bass clef whole notes below are representing\na chord that actually should by pressed down silently\nand secured with the sostenuto pedal (for the\nfirst 6 measures) prior to beginning the arpeggio."!ped! F,,,F,,E,G, A,EGE!ped-up! | %1
!ped! F4!ped-up!!ped! E4!ped-up! |!ped! F,,,F,,E,G, G,B,FB,!ped-up! |!ped! E4 D4!ped-up! | %4
!ped! F,,,"^dim."!mf!F,,C,G,!ped-up!!ped! A,F,A,C!ped-up! | %5
!ped! G,B,DE!ped-up!!ped! FEB,G,!ped-up! |!ped! G,,E,B,E, B,EB,E,!ped-up! | %7
!ped! A,,F,CF, A,,F,!ped-up!!ped!A,,A,,,!ped-up! | [B,,,,B,,,]2!mp!!ped! [B,D]4 [F,B,]2!ped-up! | %9
!ped! [B,,,B,,]2 [F,_C]4 [F,_A,]2!ped-up! |"_S.P."!ped! z2 B,4!ped-up! B,2 | %11
!ped! B,2!ped-up! z2 z4 |"_S.P."!ped! [B,,,,B,,,]2 [_A,B,]4!ped-up! [A,B,]2 | %13
!ped! [B,,,B,,]2 [_G,=A,]4!ped-up! [G,A,]2 |"_S.P."!ped! z2 [D,F,B,]4!ped-up! [E,F,C]2 | %15
!ped! [F,B,D]2!ped-up! z2 z4 |!ped! [^F,,,^F,,]8!ped-up! | [G,,,G,,]2!ped! D,4 G,2!ped-up! | %18
!mf!!ped! [A,,,A,,]2 F,2!ped-up!!ped! [B,,,B,,]2 F,2!ped-up! | %19
 F,2!ped-up!!ped!!<(! [B,D]4 [DF]2!<)! | %20
!ped! [D,,,D,,]2!f! !arpeggio!!fermata![D,^F,B,C]4 [D,F,C]2!ped-up! | %21
!ped! [E,,,E,,]2!mp! B,2!ped-up!!ped! [=E,,,=E,,]2 [C,G,C]2!ped-up! | %22
!ped! [F,,,F,,]4!mp!!<(! (6:4:6G,,,/-[G,,,G,,]/-[G,,,G,,]/-[G,,,G,,]/-[G,,,G,,]/-[G,,,G,,]/-!<)!!f! [G,,,G,,]4!ped-up! | %23
!ped! [C,,,C,,]4!ped-up!!ped! [F,,,F,,]4 |!ped! [D,F,]2 x2 x4!ped-up! | %25
!ped! B,,F,_A,_C ECA,F,!ped-up! |!ped! B,,,-"_S.P."[B,,,B,,] F,B, FD!ped-up!!ped!^CF!ped-up! | %27
!ped! DB,F,B,!ped-up!!ped! F,B,, z2!ped-up! |!ped! [_A,B,_A]8!ped-up! |!ped! [_G,=A,_G]8!ped-up! | %30
!ped! B,,,B,,F,B, FD!ped-up!!ped!EF!ped-up! |!ped! DB,F,B, F,B,, z2!ped-up! |!ped! A,8!ped-up! | %33
!ped! B,8!ped-up! |!ped! C4!ped-up!!ped! x4!ped-up! |!ped! DEDB, F,B,F,!ped-up!!ped!B,, | %36
!f!{/[D,,,D,,]-} [D,,,D,,]D,,A,,D, ^F,C ^F2!ped-up! |!ped! [G,B,G]8!ped-up! | %38
!ped! =E,,C,G,C, B,CB,C,!ped-up! |!mp!!ped! F,,D,F,B, DB,F,D,!ped-up! | %40
!ped! z ^F,,,^F,,=E, ^A,=EA,E,!ped-up! |!ped! z C,,C,_G, B,_EB,G,!ped-up! | %42
!ped! [A,EA]6!ped-up!!ped! [_A,_A]2!ped-up! |!ped! [G,=B,FG]8!ped-up! |!ped! [G,CG]8!ped-up! | %45
!ped! [^F,C^F]8!ped-up! |!ped! [G,B,B]8!ped-up! |!ped! =E,,C,G,B, B,G,C,E,,!ped-up! | %48
!mf!!ped! x4!ped-up!!ped! [_G,_G]2!ped-up!!ped! [F,F]2 | %49
 [F,F]2!ped-up!!ped! [_A,_A]4!ped-up!!ped! [_G,_G]2!ped-up! |!ped! [F,F]4!ped-up!!ped! x4 | %51
 C_A,D,G,,!ped-up!!mf!!ped! [G,,D,]F,=B, z!ped-up! | %52
"_S.P."!ped! x4!ped-up!!ped! C2!ped-up!!ped! D2!ped-up! |!ped! F,,C,E,A, C!p!E z2!ped-up! | %54
!p!!ped! G,/4-[G,B,]/4-[G,B,E]/4-[G,B,EG]/4-[G,B,EG]-!mp! [G,B,EG]!ped-up!"_S.P." z z2 z2!pp! .[B,_F]2 | %55
 .[G,E]2 z2 z2 .[_A,B,_F]2 | .[G,B,E]2 .[_A,B,_F]2 .[G,B,E]2 z2 |!p! z4!pp! .[G,B,D]2 .[^F,CE]2 | %58
 .[G,B,D]2 z2 z2 .[^F,E]2 | .[G,B,]2 z2 z2 .[^F,CE].[F,CE] | .[G,B,D]2 .[^F,CE]2 .[G,B,D]2 z2 | %61
!p! z4!pp! .[F,B,D]2 .[=E,B,D]2 | .[F,B,D]2 z2 z2 .[_G,B,]2 | .[F,B,D]2 z2 z2 .[_G,B,E].[G,B,E] | %64
 .[F,B,D]2 .[_G,B,E]2 .[F,B,D]2!p!"_S.P." z2 | z2!pp! .[_G,B,E]2 .[F,B,D]2 .[G,B,E]2 | %66
!ped!!p! [F,=B,F]2!p! [G,,,G,,]2!ped-up!!ped! z _A,,!ped-up!"^cresc."G,,G,,, | %67
!ped! z =B,,_B,,!ped-up!G,,,!ped! z _D,!ped-up!C,G,, | %68
!ped! =B,, [G,,G,][F,,F,]!ped-up![G,,,G,,]!ped! [_A,,_A,]2!ped-up! [G,,G,]"^cresc."[G,,,G,,] | %69
!ped! [=B,,=B,]2 [_B,,_B,][G,,G,]!ped-up!!ped! [_D,_D]2 [C,C]!ped-up![G,,G,] | %70
!f! [=B,,=B,]2[K:treble]!p! .f.e .d.c.=B._A | .[Gd]._B._A.G .F.E.D.G, || %72
[K:Ab][M:3/2][K:bass]!f!!ped! ._A,,!p!.E,.A,.C[K:treble] .E.A .c2!ped-up!!mf!!ped-up!!ped! [_D_FG=B]4 | %73
!p!!ped! .A,.E.A.c .e.a .c'2!mf!!ped-up!!ped! [_d_fg=b]4!ped-up! | %74
!p!!ped! A,E!<(! c2 [Ace]2!<)! A,2!ped-up!!ped! [GB_f]2 A,2!ped-up! | %75
!ped! [_GAe]2 A,2!ped-up!!ped! [FAd]2 A,2!ped-up!!ped! [=EG_d]2 B,2!ped-up! | %76
[K:bass]!p!!ped! .F,,.C,.F,.A, .C.F .A2!ped-up!!ped! [_B,D=EG]4!ped-up! | %77
!p!!ped! F,C[K:treble].F.A .c.f .a2!ped-up!!ped! [_Bd=eg]4!ped-up! | %78
!p!!ped! A,C A2 [FAc]2 F,2!ped-up!!ped! [=EG_d]2 F,2!ped-up! | %79
!ped! [_EFc]2 F,2!ped-up!!ped! [D=EB]2 F,2!ped-up!!ped! [C=DA]2 F,2!ped-up! || %80
[K:Eb][M:4/4]!p! [G,DG]2[K:bass]!ff! .[E,,,E,,]2"^sempre stacc." .[F,,,F,,]2 .[^F,,,^F,,]2 | %81
 .[G,,,G,,]2[K:treble] .[_B,EG].[B,EG] .[C^F=A]2 .[^CGB]2 | %82
 .[D^F=A]2[K:bass] .[C,,C,]2 .[D,,D,]2 .[^D,,^D,]2 | %83
 .[=E,,=E,]2 .[=G,C=E].[G,CE] .[=A,^D^F]2 .[^A,EG]2 | %84
 .[=B,^D^F]2!ff!"^dim." .[_B,,,_B,,]2 .[=B,,,=B,,]2 .[^G,=D=F]2 | %85
 .[=A,^C=E]2 .[_D,,_D,]2 .[=D,,=D,]2 .[_A,=B,F]2 | .[G,CG]2 .[E,,E,]2 .[=E,,=E,]2 z2 | %87
 .F,2 z2!mp! .[=D,A,F]2 .[G,=B,=DF]2 | .[G,,D,G,]2 .[E,G,_B,]2 .[=E,G,B,]2!mf! .[G,,,G,,]2 | %89
 .[=A,,,=A,,]2 .[_D,F,_A,]2"^dim." .[=D,F,A,]2 .[F,,,F,,]2 | .[B,,,B,,]2 z2 .[=E,,=E,]2 z2 | %91
 .[=E,G,^C]2 z2 .[F,_A,=C]2 z2 |!p! .[F,G,=B,]2 z2 z4 | .[G,_B,]2 z2 z4 | %94
 .[E,=A,]2 z2 .[F,_A,]2 z2 | z4!ped! !arpeggio![E,,C,G,]2 z2 | x4!ped-up! %96
!pp! .[G,,,D,,G,,]2 .[A,,C,D,F,]2 .[G,,,G,,]2 .[A,,C,E,_G,]2 | %97
 .[=G,,,=G,,]2 .[=A,,C,E,=G,]2 .[G,,,G,,]2 .[_A,,C,D,F,]2 | %98
 .[G,,=B,,D,G,]2 .[A,C]2 .[E,_B,]2 .[A,C]2 | .[E,B,]2 F,,C, F,,2 C,,C, | %100
 C,,2 .[F,A,]2 .[C,G,]2 .[F,A,]2 | .[C,G,]2 G,,,G,, G,,,2 C,,G,, | %102
 C,,2 .[C,E,]2 .[G,,D,]2 .[C,E,]2 | .[G,,D,]2 D,,G,, D,,2 G,,,D,, | G,,,2 _B,,,G,, B,,,2 =B,,,G,, | %105
 =B,,,2 C,,G,, C,,2 G,,,G,, | G,,, z!mp! .F,G,, .E,G,, .F,G,, | %107
 .E,2 .[A,,,A,,]2 .[G,,,G,,]2 .[A,,,A,,]2 | .[G,,,G,,]2 .E,G,, .D,G,, .E,G,, | %109
 .D,2 .[G,,,G,,]2 .[^F,,,^F,,]2 .[G,,,G,,]2 | .[_G,,,_G,,]2 .D,F,, .C,F,, .D,F,, | %111
 C,2 .[_G,,,_G,,]2 .[F,,,F,,]2 .[G,,,G,,]2 | .[F,,,F,,]2 .[F,,,F,,]2 .[=E,,,=E,,]2 .[F,,,F,,]2 | %113
 .[=E,,,=E,,]2!pp! C,2 _D,2 C,2 | _D,2 [_E,,_E,]2 [=D,,=D,]2 [E,,E,]2 | %115
 [D,,D,]2 [C,,C,]4 [B,,,B,,]2 | [=A,,,=A,,]2 [D,,A,,]4 [G,,,G,,][_A,,,_A,,] | %117
 [G,,,G,,]2 .[D,A,=B,]2 .[E,G,C]2 [G,,,G,,][A,,,A,,] | [G,,,G,,]2 .[E,B,C]2 .[F,A,C]2 [G,,,G,,]2 | %119
 [G,,,G,,]2 .[F,CD]2 .[G,B,E]2 .[F,CD]2 | %120
 .[G,B,E]2 [A,,,A,,][G,,,G,,] [A,,,A,,]2 [B,,,B,,][A,,,A,,] | %121
!pp! [B,,,B,,]2"^cresc. subito" .[F,A,D]2 .[E,G,C]2 [B,,,B,,][C,,C,] | %122
 [B,,,B,,]2 .[G,B,E]2 .[F,A,D]2 [C,,C,][D,,D,] | [C,,C,]2 .[A,CF]2 .[G,CE]2 .[B,CG]2 | %124
 .[A,CF]2 .[CFA]2 .[D,^F,C]2 .[=A,CD^F]2 |!ped! [G,=B,DG]2 z2[K:treble] F/c/f/a/!ped-up! z2 | %126
!ped! E/B/e/g/ z2!ped-up!!ped! _D/G/B/f/ z2!ped-up! | %127
[K:bass]!ped! C,/G,/B,/=E/ z2[K:treble] C/B/c/g/ z2!ped-up! | %128
!ped! C/A/c/f/ z2!ped! C/!ped-up!G/c/=e/ z2!ped-up! | %129
[K:bass]!ped! (3F,,C,A, z2[K:treble]!ped-up!!ped! E/B/e/g/ z2!ped-up! | %130
!ped! _D/A/_d/f/ z2!ped-up!!ped! _C/F/A/e/ z2!ped-up! | %131
[K:bass]!ped! B,,/F,/A,/=D/ z2[K:treble] B,/A/B/f/ z2!ped-up! | %132
!ped! B,/_G/B/e/ z2!ped-up!!ped! B,/F/B/d/ z2!ped-up! | %133
[K:bass]!ped! E,/B,/E/=G/ z2[K:treble] D/B/d/f/ z2!ped-up! | %134
!ped! C/G/c/e/ z2!ped-up!!ped! B,/G/B/d/ z2!ped-up! | %135
[K:bass]!ped! =A,,/E,/G,/C/ z2!ped-up!!ped! B,,/E,/G,/C/ z2!ped-up! | %136
!ped! G,,/D,/F,/C/ z2!ped-up!!ped! =A,,/E,/G,/C/ z2!ped-up! | %137
"_S.P."!ff!!ped! [D,,=A,,D,]8-!ped-up! |!ped! [D,,A,,D,]8-!ped-up! | %139
!ped!"^dim." [D,,A,,D,]8-!ped-up! |!ped! [D,,A,,D,]8!ped-up! | %141
 z2 .[_A,,C,F,]2 .[G,,=B,,F,]2 .[A,,C,F,]2 | [G,,B,,F,]2 F,,G,, F,,2 E,,F,, | %143
!p!"^poco cresc." E,,2 .[E,G,C]2 .[D,^F,C]2 .[E,G,C]2 | .[D,^F,C]2 C,D, C,2 B,,C, | %145
!mp!"^molto cresc." B,,2 [A,B,D]2 [G,B,D]2 [A,B,D]2 | %146
!f!!ped! [G,B,CE]4!ped-up!!ped! [F,_A,B,DF]4!ped-up! | [E,G,B,E]2 [D,D][E,E] [D,D]2 [C,C][D,D] | %148
 [C,C]2 [B,,B,][C,C] [B,,B,]2 [A,,A,]2 || %149
[K:C]!ped! z2 [D,F,G,B,]2 [D,F,G,B,D]2 [D,,A,,D,]2!ped-up! | %150
!ped! z2 [D,F,G,B,]2 [G,B,DF]2!ped-up! x2 | [G,,D,F,B,]2 [D,A,CF]2!ped! [G,,D,F,B,]4!ped-up! | %152
 !arpeggio![D,F,G,B,]2!ped-up!!ped! !arpeggio![D,A,CF]2!ped-up!!ped! [G,B,DF]2!ped-up!!ped!{/[D,,A,,D,]} [F,A,CF]2 | %153
!ped! (3G,,,D,,G,, x2 x2 (3D,,G,,,D,,!ped-up! |!ped! (3[D,,,D,,]G,,D, x4 (3G,,D,,G,,!ped-up! | %155
!ped! (3[G,,,G,,]D,G, x4 (3D,G,,D,!ped-up! |!ped! (3[D,,D,]G,D x2 z2 (3G,D,G,!ped-up! | %157
!ped! (3[G,,G,]DG x2[K:treble] [Aa][df] z2!ped-up! | [Gg][df] z2 [A,A][DF] z2 | %159
 [G,G][DF] z2 [Aa][df] z2 | [Gg][df] z2 [A,A][DF] z2 | [G,G][DF] z2 [Aa][df] z2 | %162
 [Gg][df] z2 [Aa][df] z2 | [Gg][df] z2 [Aa][df] z2 | [Gg][df] z2 [Gg][df]!ped-up!!ped! z2 | %165
 z2 !fermata!z4 |[K:bass]!fff!!ped! z2!ped-up! [E,G,CE]4 [E,G,CE]2 | %167
!ped! z2 [G,_B,_DF]4 [F,G,B,D]2!ped-up! | %168
"_S.P." z .[G,,C,F,].[G,,C,E,].[G,,C,F,] .[G,,C,E,].[G,CE].[G,CE].[G,C_E] | %169
!ped! [C=E]G,!ped-up!!ped! [G,E]C,!ped-up!!ped! [C,G,]G,,!ped-up!!ped! [G,,C,]C,,!ped-up! | %170
!ped! x4 x2 [C,G,_B,C]2!ped-up! |!ped! x4 x2 [C,F,_A,B,]2!ped-up! | %172
"_S.P." z .[G,,C,F,].[G,,C,E,].[G,,C,F,] .[G,,C,E,].[G,CF].[G,CE].[G,CF] | %173
!ped! [CE]G,!ped-up!!ped! [G,C]C,!ped-up!!ped! [C,G,]G,,!ped-up!!ped! [G,,C,]C,,!ped-up! | %174
!mf!!ped! [^G,,,^G,,]2 [E,^G,B,=D]4 [E,G,B,D]2!ped-up! | %175
!ped! [A,,,A,,]2"^cresc." [A,,E,A,]4 [E,A,C]2!ped-up! | %176
!ped! [B,,,B,,]2 [F,G,B,D]2!ped-up!!ped! [C,,,C,,]2 [G,,C,E,]2 | %177
 [C,E,G,]2 [E,G,CE]4 [G,CEG]2!ped-up! | %178
!ped! z!mf! [D,^G,D][D,G,C][D,G,D] [D,G,C][D,G,C][D,G,B,][D,G,C]!ped-up! | %179
!ped! z!mf! [C,F,C][C,F,B,][C,F,C] [C,F,B,][C,F,A,][C,F,A,][C,F,A,]!ped-up! | %180
!ped! z!mf! [C,D,^F,A,][C,D,F,A,][D,F,A,C] z [D,F,A,C][D,F,A,C][F,A,CD]!ped-up! | %181
!ped! z!<(! [E,G,CE][E,G,CE][G,CEG] x4!ped-up!!<)! | %182
!ped! z!f! [C,_E,_G,_A,][C,E,G,A,][E,G,A,C] [E,G,A,C][G,A,C_E][G,A,CE][A,CE_G]!ped-up! | %183
!ped! z2 [D,F,_A,C]4 [F,A,CD]2!ped-up! | %184
!ped! z!f! [D,F,G,B,][D,F,G,B,][F,G,B,D] [F,G,B,D][G,B,DF]!ped-up!!ped![G,_B,DF][B,DFG]!ped-up! | %185
!ped! z2 [E,G,A,^CE]4 [A,CEGA]2!ped-up! | %186
!ped! z!f! [A,,D,F,A,][A,,D,F,A,][D,F,A,D] [D,F,A,D][F,A,DF][F,A,DF][A,DFA]!ped-up! | %187
!fff!!ped! z!f! [D,E,^G,B,][D,E,G,B,][E,G,B,D] [E,G,B,D][G,B,DE][G,B,DE][B,DE^G]!ped-up! | %188
!ped! z2 [F,,A,,C,F,]2 [C,F,A,C]2 [F,A,CF]2!ped-up! |!ped! z2 [D,^F,A,C]4 [F,C^F]2!ped-up! | %190
 [G,,,G,,]2!ped! [G,A,CE]2!ped-up!!ped! [G,B,E]2!ped-up!!ped! [G,CE]2!ped-up! | %191
[K:treble]!ped! [G,CDG]2!ped-up!!ped! [G,CEG]2!ped-up!!ped! [A,CF]2!ped-up!!ped! [A,CD^F]2!ped-up! | %192
!ped! [B,DFG]2!ped-up!!ped! [C_EGA]2!ped-up!!ped! [^C=EG_B]2!ped-up!!ped! [DFG=B]2!ped-up! | %193
!ped! [EGc]2!ped-up!!ped! [_EGAc]2!ped-up!!ped! [D^FAc]2!ped-up!!ped! [GBd]2!ped-up! | %194
 [CEGc]2[K:bass]!ped! [A,,C,]4!ped-up! .[G,,B,,F,]2 | .[C,E,G,]2!ped! [E,,D,]4!ped-up! .[F,A,]2 | %196
 .[E,^G,]2 [A,^C]2 [F,A,D]2 [^F,=CD]2 | %197
!ped! [G,CD=F]2[K:treble] [Gcdf]2!ped-up!!ped! [GBdf]2 [G,B,DF]2!ped-up! | %198
[K:bass] [C,E,G,C]2!ped! [E,^G,D]4!ped-up! .[F,_A,CD]2 | %199
 .[C,E,G,C]2!ped! [A,CE^F]4!ped-up! .[B,^DA]2 | .[E,G,B,E]2 [A,CG]2 [F,A,D]2 [^F,A,=CD]2 | %201
!ped! [G,CDF]2[K:treble] [Gcdf]2!ped-up!!ped! [GBdf]2 [G,DFG]2!ped-up! | %202
 [CEGc]2!ped! z2!fff! [A,C^Fc]4!ped-up! |!ff! [CEGc]2!ped! z2[K:bass]!fff! [^G,,E,B,]4!ped-up! | %204
!ff! [C,E,=G,C]2!ped! z2!fff! [G,,,G,,]4!ped-up! | %205
!ff! [C,,E,,G,,C,]2 [^F,,,^F,,]2 [A,,,A,,]2 [G,,,G,,]2 | [C,,,C,,]2 x2!ped! x4!ped-up! | %207
!ped! x2!ped-up! x2!ped! (3[G,,C,E,G,][I:staff -1][EG]C!ped-up![I:staff +1] (3[D,E,G,D][I:staff -1][Gd]E | %208
!ped![I:staff +1] (3[C,E,G,C][I:staff -1][Gc]E[I:staff +1][K:treble] x2 x4 | %209
 x8!ped-up!!ped!!ped-up! |[K:bass] [C,E,G,C]2 z2!ped! [C,E,G,C]2 [C,C][C,C] | %211
 [C,C]2!ped-up! z2 z4 |] %212
V:3
 [F,,,F,,E,A,E]8 | FEA,F EA,F,F,, | x8 | EB,G,E DB,G,F,, | x8 | x8 | x8 | x8 | x8 | x8 | %10
 [B,,,,B,,,]8- | [B,,,,B,,,]2 z2 z4 | x8 | x8 | [B,,,,B,,,]8- | [B,,,,B,,,]2 z2 z4 | x8 | x8 | x8 | %19
 x8 | x8 | x8 | x10 | x8 | [B,,,,B,,,]!mp!F,B,D FDB,F, | x8 | x8 | x8 | z B,,,B,,_A, B,_A z2 | %29
 z B,,,B,,_G, A,_G z2 | x8 | x8 | z ^F,,D,A, D,A,CA, | z G,,D,G, B,CB,G, | z A,,F,C B,,F,F,B, | %35
 x8 | x8 | z E,,B,,G,!f!!>(! B,C G2 | x7!>)! x | x8 | x8 | x8 | z F,,,F,,"^dim."C, E,A, z [CE] | %43
 z G,,,!mp!G,,D, F,G, =B,2 | z C,,"^cresc."C,G, CE G2 | z D,,D,^F, C^F z2 | %46
 z E,,B,,G, B,G"^dim."B,G, | x8 | F,,D,F,B, _G,B,F,B, | F,B,_A,B, A,B,_G,B, | FDB,F, F,,,F,,D,_A, | %51
 x8 | C,,E,G,B, CG,DG, | x8 | z2 [B,,,B,,]-[B,,,B,,]- [B,,,B,,]6- | [B,,,B,,]8- | [B,,,B,,]8 | %57
 [B,,,B,,]8- | [B,,,B,,]8- | [B,,,B,,]8- | [B,,,B,,]8 | [B,,,B,,]8- | [B,,,B,,]8- | [B,,,B,,]8- | %64
 [B,,,B,,]6 [_A,,,_A,,]2- | [A,,,A,,]8 | x8 | x8 | x8 | x8 | x2[K:treble] x6 | x8 || %72
[K:Ab][M:3/2][K:bass] x4[K:treble] x8 | x12 | x12 | x12 |[K:bass] x12 | x2[K:treble] x10 | x12 | %79
 x12 ||[K:Eb][M:4/4] x2[K:bass] x6 | x2[K:treble] x6 | x2[K:bass] x6 | x8 | x8 | x8 | x8 | x8 | %88
 x8 | x8 | x8 | .[=A,,,=A,,]2 z2 .[D,,D,]2 z2 | .[G,,,G,,]2 z2 z4 | .[E,,_D,]2 z2 z4 | %94
 .[F,,C,]2 z2 .[D,,C,]2 z2 | x8 | x8 | x8 | x8 | x8 | x8 | x8 | x8 | x8 | x8 | x8 | x8 | x8 | x8 | %109
 x8 | x8 | x8 | x8 | x2 F,,6- | F,,2 x2 x4 | x8 | x8 | x8 | x8 | x8 | x8 | x8 | x8 | x8 | x8 | %125
 x4[K:treble] F4 | E4 _D4 |[K:bass] C,4[K:treble] C4 | C4 C4 |[K:bass] F,,4[K:treble] E4 | %130
 _D4 _C4 |[K:bass] B,,4[K:treble] B,4 | B,4 B,4 |[K:bass] E,4[K:treble] D4 | C4 B,4 | %135
[K:bass] =A,,4 B,,4 | G,,4 =A,,4 | x8 | x8 | x8 | x8 | x8 | x8 | x8 | x8 | x8 | x8 | x8 | x8 || %149
[K:C] [G,,G,]6 x2 | [G,,,D,,G,,]6 [D,A,CF]2 | x4 z2 !arpeggio![G,,,D,,G,,]2 | x8 | x8 | x8 | x8 | %156
 x8 | x4[K:treble] A2 z2 | G2 z2 A,2 z2 | G,2 z2 A2 z2 | G2 z2 A,2 z2 | G,2 z2 A2 z2 | %162
 G2 z2 A2 z2 | G2 z2 A2 z2 | G2 z2 G2 z2 | x6 |[K:bass] [C,,,C,,C,]8 | [C,,,C,,]8 | [C,,,C,,]8- | %169
 [C,,,C,,]2 z2 z4 | [C,,,C,,]8 | [C,,,C,,]8 | [C,,,C,,]8 | x8 | x8 | x8 | x8 | x8 | [E,,,E,,]8 | %179
 [F,,,F,,]8 | [^F,,,^F,,]8 | [G,,,G,,]8 | [_A,,,_A,,]8 | [=D,,,=D,,]8 | [G,,,G,,]8 | [A,,,A,,]8 | %186
 [D,,,D,,]8 | [E,,,E,,]8 | [F,,,F,,]8 | [^F,,,^F,,]8 | x8 |[K:treble] x8 | x8 | x8 | %194
 x2[K:bass] x6 | x8 | x8 | x4/3[K:treble] x20/3 |[K:bass] x8 | x8 | x8 | x4/3[K:treble] x20/3 | %202
 x8 | x10/3[K:bass] x14/3 | x8 | x8 | x8 | x8 | x2[K:treble] x6 | x8 | %210
[K:bass] x4 [C,,,C,,]2 [C,,,C,,][C,,,C,,] | [C,,,C,,]2 z2 z4 |] %212
V:4
 x8 | x8 | x8 | x8 | [eg]4 e4- | e8 | B8 | c8 | B2 x2 x2!mp! [DF]2 | x8 | F,2!mp! [F,D]4 [F,^C]2 | %11
 [F,D]2[K:bass] x2 x4 | x8 | x8 | x8 | x8 | z2!mp! [A,=C]4 [A,C]2 | z2 G,4 B,2 | z2 C4!p! B,2 | %19
 [D,B,]2[K:treble] x2 x4 | x8 | z2 [G,DG]2 x4 | z2!mp! [B,D]4 E2 D2 | z2 [G,CG]4 [F,A,E]2 | %24
 x2 [df]6 | [_ce]8 | d6 ^c2 | d2 B6 | B8 | =A8 | d6 c2 | d2 B6 | [Ac]8 | [GB]8 | c4 B4 | B4 [df]4 | %36
{/[F,CF]-} [F,CF]8 | g8 | c8 | [Bd]8 | [^A,=E^A]8 | [_B,_E_G_B]8 | x8 | x8 | g8 | ^f4 f4 | g8 | %47
 c2 B6 | B8- | B2 B6- | B4 x4 | x8 | [G_B]8 | x6 FA | x10 | x8 | x8 | x8 | x8 | x8 | x8 | x8 | x8 | %63
 x8 | x8 | x8 | x3[K:bass] x5 | x8 | x3[K:treble] x5 | x8 | x2!8va(! x6 | x8 || %72
[K:Ab][M:3/2] x2!8va)! x10 | x2!8va(! x10 | x12 | x12 | x4!8va)! x4 g4 | x2!8va(! x2 x4 g'4 | %78
 x3!8va)! x9 | x12 ||[K:Eb][M:4/4] x8 | x2!8va(! x6 | x2!8va)! x6 | x2!8va(! x6 | %84
 x2!8va)! x4!8va(! x2 | x2!8va)! x4!8va(! x2 | x6!8va)! .[_D_GB]2 | .[C=A]2 .[_DF_A]2 x4 | x8 | %89
 x8 | x8 | x8 | x8 | x8 | x8 | x8 | x8 | x8 | x8 | x8 | x8 | x2[K:bass] x6 | x8 | x8 | x8 | x8 | %106
 x2[K:treble] x6 | x2 C4 EF | E2 x2 x4 | x2 B,4 DE | D2 x2 x4 | x2 B,6- | B,2 A,6- | %113
 A,2 A,CG,B, A,C | G,B, CD C2 =B,C | =B,2 C4 D2 | ^C2 D4 z2 | x8 | x8 | x8 | x8 | x8 | x8 | x8 | %124
 x8 | x2!8va(! x6 | x8 | x8 | x8 | x8 | x8 | x8 | x8 | x8 | x8 | x6!8va)! x2 | x8 | %137
 x2 z2 [Ee][Gc] z2 | [Dd][^FB] z2 [Cc][DF] z2 | [B,B][DG] z2 [=A,=A][D^F] z2 | %140
 [G,G][CE] z2 [^F,^F]!p![=A,D] z2 | x8 | x8 | x8 | x8 | x8 | x8 |!8va(! x8 | x8 || %149
[K:C] z2!8va)! [DFBd]2 [GBdg]2 x2 | [F,G,B,FG]6 [Acfa]2 | x4 z2 !arpeggio![F,B,DF]2 | %152
 x2!8va(! x6!8va)! |[K:bass] x8 | x8 |[K:treble] x8 | x8 | x6!8va(! x2 | x4!8va)! x4 | %159
 x6!8va(! x2 | x4!8va)! x4 | x6!8va(! x2!8va)! | x8 | x8 | x6!8va(! x2 | x4!8va)! x2 | C8 | x8 | %168
 z .[G,CF].[G,CE].[G,CF] .[G,CE].[Gce].[Gce].[Gc_e] | [Gc=e]2 x2 x4 | x8 | x8 | %172
 z .[G,CF].[G,CE].[G,CF] .[G,CE].[Gcf].[Gce].[Gcf] | [Gce]2 x2 x4 | E2 [E^GB=d]4 [E-GBd]2 | E2 x6 | %176
 x4 z2 [G,CEG]2 | [CEGc]2 z2 z4 | x8 | x8 | x8 | x2 x2 z [G,CEG][G,CEG]!fff![CEGc] | x8 | x8 | x8 | %185
 x8 | x8 | x8 | z2 [A,CFA]2 x4 | x8 | x8 | x8 |!8va(! x8 | x8 | x2!8va)![K:bass] x6 | x8 | %196
 x2[K:treble] x6 | x8/3!8va(! x10/3!8va)! x2 | x8 | x8 | x8 | x8/3!8va(! x16/3 | x8!8va)! | x8 | %204
 x14/3[K:bass] x10/3 | x8 | x8 | x8/3[K:treble] x16/3 | x8 | %209
 x8/3!8va(! x4/3!8va)! x2/3!8va(! x4/3!8va)! x2/3!8va(! x4/3 | x2!8va)! x6 | x8 |] %212
V:5
 x8 | x8 | x8 | x8 | x8 | x8 | x8 | x8 | x8 | x8 | x8 | x2[K:bass] x6 | x8 | x8 | x8 | x8 | x8 | %17
 x8 | x8 | x2[K:treble] x6 | x8 | x8 | x10 | x8 | x8 | x8 | x8 | x8 | x8 | x8 | x8 | x8 | x8 | x8 | %34
 x8 | x8 | x8 | x8 | x8 | x8 | x8 | x8 | x8 | x8 | x8 | x8 | x8 | x8 | x8 | x8 | x8 | x8 | x8 | %53
 x8 | x10 | x8 | x8 | x8 | x8 | x8 | x8 | x8 | x8 | x8 | x8 | x8 | x3[K:bass] x5 | x8 | %68
 x3[K:treble] x5 | x8 | x2!8va(! x6 | x8 ||[K:Ab][M:3/2] x2!8va)! x10 | x2!8va(! x10 | x12 | x12 | %76
 x2!8va)! x10 | x2!8va(! x10 | x3!8va)! x9 | x12 ||[K:Eb][M:4/4] x8 | x2!8va(! x6 | x2!8va)! x6 | %83
 x2!8va(! x6 | x2!8va)! x4!8va(! x2 | x2!8va)! x4!8va(! x2 | x2!8va)! x6 | x8 | x8 | x8 | x8 | x8 | %92
 x8 | x8 | x8 | x8 | x8 | x8 | x8 | x8 | x8 | x2[K:bass] x6 | x8 | x8 | x8 | x8 | x2[K:treble] x6 | %107
 x8 | x8 | x8 | x8 | x4 D4- | D2 x2 C4- | C2 x2 x4 | x8 | x8 | x8 | x8 | x8 | x8 | x8 | x8 | x8 | %123
 x8 | x8 | x2!8va(! x6 | x8 | x8 | x8 | x8 | x8 | x8 | x8 | x8 | x8 | x6!8va)! x2 | x8 | x8 | x8 | %139
 x8 | x8 | x8 | x8 | x8 | x8 | x8 | x8 |!8va(! x8 | x8 ||[K:C] x2!8va)! x6 | x8 | x8 | %152
 x2!8va(! x6!8va)! |[K:bass] x8 | x8 |[K:treble] x8 | x8 | x6!8va(! x2 | x4!8va)! x4 | %159
 x6!8va(! x2 | x4!8va)! x4 | x6!8va(! x2!8va)! | x8 | x8 | x6!8va(! x2 | x4!8va)! x2 | %166
 z2 [ce]2 z2 [eg]2 | x8 | x8 | x8 | x8 | x8 | x8 | x8 | x8 | x8 | x8 | x8 | x8 | x8 | x8 | x8 | %182
 x8 | x8 | x8 | x8 | x8 | x8 | x8 | x8 | x8 | x8 |!8va(! x8 | x8 | x2!8va)![K:bass] x6 | x8 | %196
 x2[K:treble] x6 | x8/3!8va(! x10/3!8va)! x2 | x8 | x8 | x8 | x8/3!8va(! x16/3 | x8!8va)! | x8 | %204
 x14/3[K:bass] x10/3 | x8 | x8 | x8/3[K:treble] x16/3 | x8 | %209
 x8/3!8va(! x4/3!8va)! x2/3!8va(! x4/3!8va)! x2/3!8va(! x4/3 | x2!8va)! x6 | x8 |] %212

